**kern	**kern	**kern	**kern
*MM60	*MM60	*MM60	*MM60
*k[f#]	*k[f#]	*k[f#]	*k[f#]
*M2/2	*M2/2	*M2/2	*M2/2
*tb32	*tb32	*tb32	*tb32
=1	=1	=1	=1
1r	4r	1r	1r
.	4d	.	.
.	4d	.	.
.	4d	.	.
=2	=2	=2	=2
1r	8B	1r	1r
.	8d	.	.
.	8G	.	.
.	8d	.	.
.	8B	.	.
.	8d	.	.
.	8G	.	.
.	8B	.	.
=3	=3	=3	=3
1r	4E	1r	1r
.	4e	.	.
.	4e	.	.
.	4e	.	.
=4	=4	=4	=4
1r	8c	1r	1r
.	8e	.	.
.	8A	.	.
.	8e	.	.
.	8c	.	.
.	8e	.	.
.	8A	.	.
.	8c	.	.
=5	=5	=5	=5
1r	8F#	1r	1r
.	8A	.	.
.	8D	.	.
.	8G	.	.
.	8F#	.	.
.	8A	.	.
.	8D	.	.
.	8G	.	.
=6	=6	=6	=6
1r	8E	1r	1r
.	8c	.	.
.	8B	.	.
.	8c	.	.
.	2AT	.	.
=7	=7	=7	=7
1r	4.G	4r	1r
.	.	4g	.
.	8A	.	.
.	8B	4g	.
.	8d	.	.
.	8G	4g	.
.	8B	.	.
=8	=8	=8	=8
1r	4A	8f#	1r
.	.	8a	.
.	4F#	8d	.
.	.	8a	.
.	4D	8f#	.
.	.	8a	.
.	4F#	8d	.
.	.	8f#	.
=9	=9	=9	=9
1r	4.G	4B	1r
.	.	4b	.
.	8F#	.	.
.	8G	4b	.
.	8B	.	.
.	8D#	4b	.
.	8F#	.	.
=10	=10	=10	=10
1r	4E	8g	1r
.	.	8b	.
.	4G	8e	.
.	.	8b	.
.	4E	8g	.
.	.	8b	.
.	4G	8e	.
.	.	8g	.
=11	=11	=11	=11
1r	4A	8c#	1r
.	.	8e	.
.	8r	8A	.
.	8F#	8d	.
.	4A	8c#	.
.	.	8e	.
.	8r	8A	.
.	8F#	8d	.
=12	=12	=12	=12
1r	4G	8B	1r
.	.	8g	.
.	[4d	8f#	.
.	.	8g	.
.	8d]	4.e	.
.	8G	.	.
.	[4c	.	.
.	.	8a	.
=13	=13	=13	=13
1r	8c]	4.d	1r
.	8A	.	.
.	[4B	.	.
.	.	8g	.
.	8B]	8c	.
.	8E	8e	.
.	[4A	8c	.
.	.	8A	.
=14	=14	=14	=14
1r	8A]	4B	4r
.	8D	.	.
.	4G	8r	4dd
.	.	8b	.
.	4F#	8a	4dd
.	.	8cc	.
.	8D	8f#	4dd
.	8F#	8a	.
=15	=15	=15	=15
1r	4G	4d	8b
.	.	.	8dd
.	4B	4d	8g
.	.	.	8dd
.	4G	4d	8b
.	.	.	8dd
.	4B	4d	8g
.	.	.	8b
=16	=16	=16	=16
1r	8c	4e	4e
.	8g	.	.
.	8e	4r	4ee
.	8g	.	.
.	8c	2r	4ee
.	8e	.	.
.	8G	.	4ee
.	8B	.	.
=17	=17	=17	=17
1r	4A	4r	8cc
.	.	.	8ee
.	4c	4e	8a
.	.	.	8ee
.	4A	4e	8cc
.	.	.	8ee
.	4c	4e	8a
.	.	.	8cc
=18	=18	=18	=18
1r	4d	8d	8f#
.	.	8c	8a
.	4D	8B	8d
.	.	8G	8g
.	4D	8A	8f#
.	.	8F#	8a
.	4D	8B	8d
.	.	8G	8g
=19	=19	=19	=19
1r	4C	8c	8e
.	.	8e	8cc
.	2G	8d	8b
.	.	8e	8cc
.	.	8c	4.aM
.	.	8e	.
.	4F#	8A	.
.	.	8d	8a
=20	=20	=20	=20
1r	4G	4B	8g
.	.	.	8dd
.	4A	4c	8f#
.	.	.	8a
.	4B	4d	8g
.	.	.	8gg
.	4A	4B	8ff#
.	.	.	8aa
=21	=21	=21	=21
1r	4B	4d	8gg
.	.	.	8bb
.	4c#	4e	8ee
.	.	.	8gg
.	4d	4f#	8ff#
.	.	.	8dd
.	4e	[4g	8b
.	.	.	8ee
=22	=22	=22	=22
4r	4A	4g]	8cc#
.	.	.	8a
4A	4A	8f#	2dd
.	.	8g	.
4A	4e	8a	.
.	.	8b	.
4A	4e	8e	4cc#
.	.	8a	.
=23	=23	=23	=23
8F#	4d	4a	4dd
8A	.	.	.
8D	4d	4a	4ff#
8A	.	.	.
8F#	4d	4a	4dd
8A	.	.	.
8D	4d	4a	4ff#
8F#	.	.	.
=24	=24	=24	=24
4BB	4f#	4b	8dd
.	.	.	8ff#
4B	4d	4f#	8b
.	.	.	8ff#
4B	4f#	4b	8dd
.	.	.	8ff#
4B	4d	4f#	8b
.	.	.	8dd
=25	=25	=25	=25
8G	4B	4g	4ee
8B	.	.	.
8E	4e	4b	4gg
8B	.	.	.
8G	4e	4b	4ee
8B	.	.	.
8E	4e	4b	4gg
8G	.	.	.
=26	=26	=26	=26
8C#	4e	4a	4aa
8E	.	.	.
8AA	8r	8r	8r
8D	8d	8a	8ff#
8C#	4e	4a	4aa
8E	.	.	.
8AA	8r	8r	8r
8D	8d	8a	8ff#
=27	=27	=27	=27
8BB	4d	4b	4gg
8G	.	.	.
8F#	4d	4a	[4dd
8G	.	.	.
2E	4e	2g	8dd]
.	.	.	8ee
.	8r	.	4cc#
.	8G	.	.
=28	=28	=28	=28
4D	8F#	4a	4dd
.	8A	.	.
4D	8D	4r	8r
.	8B	.	8g
4D	8A	2r	8f#
.	8c	.	8a
4D	8F#	.	8d
.	8A	.	8f#
=29	=29	=29	=29
8BB	4B	1r	4g
8D	.	.	.
8GG	4d	.	4b
8D	.	.	.
8BB	4d	.	4g
8D	.	.	.
8GG	4d	.	4b
8BB	.	.	.
=30	=30	=30	=30
4EE	8e	1r	4g
.	8g	.	.
4E	8B	.	4g
.	8e	.	.
4E	8G	.	4b
.	8B	.	.
4E	8E	.	4g
.	8G	.	.
=31	=31	=31	=31
8C	4A	1r	4e
8E	.	.	.
8AA	4e	.	4cc
8E	.	.	.
8C	4e	.	4a
8E	.	.	.
8AA	4e	.	4cc
8C	.	.	.
=32	=32	=32	=32
8FF#	4A	1r	4dd
8AA	.	.	.
8DD	8r	.	8r
8GG	8d	.	8b
8FF#	4A	.	4dd
8AA	.	.	.
8DD	8r	.	8r
8GG	8d	.	8b
=33	=33	=33	=33
8EE	4c	1r	4ee
8C	.	.	.
8BB	2g	.	8dd
8C	.	.	8ee
2AA	.	.	8cc
.	.	.	8ee
.	4f#	.	8a
.	.	.	8cc
=34	=34	=34	=34
4GG	8g	1r	8b
.	8b	.	8dd
8r	8f#	.	8a
8D	8a	.	8cc
4G	8g	.	8b
.	8b	.	8dd
8r	8f#	.	8a
8D	8a	.	8cc
=35	=35	=35	=35
4G	8g	1r	4b
.	8d	.	.
8r	8B	.	8r
8E	8d	.	8gg#
4A	8c	.	8aa
.	8e	.	8ccc
8r	8B	.	8gg#
8E	8d	.	8bb
=36	=36	=36	=36
4A	8c	1r	8aa
.	8e	.	8ccc
8r	8d	.	[4ff#
8D	8c	.	.
4G	8B	.	8ff#]
.	8d	.	8bb
8r	8c	.	[4ee
8C	8B	.	.
=37	=37	=37	=37
4F#	8A	1r	8ee]
.	8c	.	8aa
8r	8F#	.	8dd#
8BB	8A	.	8ff#
4E	8G	.	8ee
.	8B	.	8gg
8r	8A	.	8cc#
8AA	8G	.	8ee
=38	=38	=38	=38
4D	8F#	4r	8dd
.	8A	.	8ff#
8E	8G	4g	8b
8GG	8B	.	8dd
4C	4c	4g	8ee
.	.	.	8dd
4GG	4d	4g	8cc
.	.	.	8b
=39	=39	=39	=39
4D	4d	8f#	4a
.	.	8a	.
4r	4r	8d	4ff#
.	.	8a	.
2r	2r	8f#	4dd
.	.	8a	.
.	.	8d	4ff#
.	.	8f#	.
=40	=40	=40	=40
1r	1r	4B	8dd
.	.	.	8bb
.	.	4b	8ff#
.	.	.	8bb
.	.	4b	8dd
.	.	.	8ff#
.	.	4b	8b
.	.	.	8dd
=41	=41	=41	=41
1r	1r	8g	4ee
.	.	8b	.
.	.	8e	4gg
.	.	8b	.
.	.	8g	4ee
.	.	8b	.
.	.	8e	4gg
.	.	8g	.
=42	=42	=42	=42
1r	1r	8c#	4aa
.	.	8e	.
.	.	8A	8r
.	.	8d	8ff#
.	.	8c#	4aa
.	.	8e	.
.	.	8A	8r
.	.	8d	8ff#
=43	=43	=43	=43
1r	1r	8B	8gg
.	.	8g	8cc#
.	.	8f#	[4dd
.	.	8g	.
.	.	2e	8dd]
.	.	.	8ee
.	.	.	8cc#
.	.	.	8gg
=44	=44	=44	=44
1r	1r	8d	8ff#
.	.	8f#	8aa
.	.	8b	8dd
.	.	8d	8ff#
.	.	8c	8ee
.	.	8e	8gg
.	.	8a	8cc
.	.	8c	8ee
=45	=45	=45	=45
1r	1r	8B	8dd
.	.	8d	8ff#
.	.	8g	8b
.	.	8B	8dd
.	.	8A	8cc
.	.	8c	8ee
.	.	8f#	8a
.	.	8A	8cc
=46	=46	=46	=46
1r	4r	8G	4b
.	.	8g	.
.	4G	8d	4r
.	.	8g	.
.	4G	8B	2r
.	.	8d	.
.	4G	8G	.
.	.	8B	.
=47	=47	=47	=47
1r	8F#	4A	1r
.	8A	.	.
.	8D	4f#	.
.	8A	.	.
.	8F#	4a	.
.	8A	.	.
.	8D	4f#	.
.	8F#	.	.
=48	=48	=48	=48
1r	4BB	8d	1r
.	.	8dd	.
.	4B	8b	.
.	.	8dd	.
.	4B	8f#	.
.	.	8b	.
.	4B	8d	.
.	.	8f#	.
=49	=49	=49	=49
1r	8G	4B	1r
.	8B	.	.
.	8E	4g	.
.	8B	.	.
.	8G	4e	.
.	8B	.	.
.	8E	4g	.
.	8G	.	.
=50	=50	=50	=50
1r	8C#	4a	1r
.	8E	.	.
.	8AA	8r	.
.	8D	8f#	.
.	8C#	8a	.
.	8E	8g	.
.	8AA	8a	.
.	8D	8f#	.
=51	=51	=51	=51
1r	8BB	8g	1r
.	8G	8b	.
.	8F#	8a	.
.	8G	8b	.
.	8E	8g	.
.	8G	8b	.
.	8C#	8ee	.
.	8E	8g	.
=52	=52	=52	=52
1r	8D	8f#	1r
.	8d	8a	.
.	8B	8dd	.
.	8d	8f#	.
.	8G	8e	.
.	8B	8g	.
.	8E	8cc#	.
.	8G	8e	.
=53	=53	=53	=53
1r	4F#	8d	1r
.	.	8a	.
.	8r	4dd	.
.	8D	.	.
.	4A	8r	.
.	.	8cc	.
.	8r	4f#	.
.	8d	.	.
=54	=54	=54	=54
1r	4G	8r	1r
.	.	8b	.
.	8r	4e	.
.	8c	.	.
.	4F#	8r	.
.	.	8a	.
.	8r	4d#	.
.	8B	.	.
=55	=55	=55	=55
1r	4G	8e	1r
.	.	8b	.
.	8r	8f#	.
.	8D#	8a	.
.	8E	4g	.
.	8B	.	.
.	8F#	8r	.
.	8A	8d#	.
=56	=56	=56	=56
1r	4.G	8e	4r
.	.	8c	.
.	.	[4e	4bb
.	8A	.	.
.	4B	8e]	4bb
.	.	8f#	.
.	8r	4d#	4bb
.	8B	.	.
=57	=57	=57	=57
1r	4E	4e	8gg
.	.	.	8bb
.	4G	4B	8ee
.	.	.	8bb
.	4E	4B	8gg
.	.	.	8bb
.	4G	4B	8ee
.	.	.	8gg
=58	=58	=58	=58
1r	8A	4A	4cc
.	8a	.	.
.	8e	4r	4ccc
.	8a	.	.
.	8c	2r	4ccc
.	8e	.	.
.	8A	.	4ccc
.	8c	.	.
=59	=59	=59	=59
1r	4F#	4r	8aa
.	.	.	8ccc
.	4A	4a	8ff#
.	.	.	8ccc
.	4c	4f#	8aa
.	.	.	8ccc
.	4A	4a	8ff#
.	.	.	8aa
=60	=60	=60	=60
1r	4B	4a	8dd#
.	.	.	8ff#
.	8r	8r	8b
.	8A	8f#	8ee
.	4B	4f#	8dd#
.	.	.	8ff#
.	8r	8r	8b
.	8G	8g	8ee
=61	=61	=61	=61
1r	4A	8e	8cc
.	.	8cc	8aa
.	2e	8b	8gg
.	.	8cc	8aa
.	.	8a	[2ff#
.	.	8cc	.
.	4d#	8f#	.
.	.	8a	.
=62	=62	=62	=62
1r	4e	4g	8ff#]
.	.	.	8b
.	4c	8r	4ee
.	.	8e	.
.	4A	4f#	8r
.	.	.	8a
.	4B	8r	4dd
.	.	8f#	.
=63	=63	=63	=63
1r	4E	4g#	8r
.	.	.	8b
.	4A	8r	4cc
.	.	8e	.
.	4D#	4f#	8r
.	.	.	8b
.	4E	8r	4g
.	.	8e	.
=64	=64	=64	=64
1r	4A	4c	8r
.	.	.	8ee
.	4A	4e	8cc
.	.	.	8ee
.	4c	4e	8a
.	.	.	8cc
.	[4A	4c	8f#
.	.	.	8a
=65	=65	=65	=65
4r	4A]	4.B	8d#
.	.	.	8f#
4B	8G	.	8B
.	8A	8g	8ee
4B	4B	8f#	8dd#
.	.	8a	8ff#
4B	4B	8d#	8b
.	.	8f#	8dd#
=66	=66	=66	=66
8G	4B	4g	4ee
8B	.	.	.
8E	4r	4b	4gg
8B	.	.	.
8G	2r	4ee	4bb
8B	.	.	.
8E	.	4b	4gg
8G	.	.	.
=67	=67	=67	=67
4C	1r	8cc	4ee
.	.	8ee	.
4c	.	8g	4ee
.	.	8cc	.
4c	.	8e	4gg
.	.	8g	.
4c	.	8c	4ee
.	.	8e	.
=68	=68	=68	=68
8A	1r	4a	4cc
8c	.	.	.
8F#	.	4a	4aa
8c	.	.	.
8A	.	4f#	4ccc
8c	.	.	.
8F#	.	4a	4aa
8A	.	.	.
=69	=69	=69	=69
8D#	1r	4b	4ff#
8F#	.	.	.
8BB	.	8r	8r
8E	.	8b	8gg
8D#	.	4b	4ff#
8F#	.	.	.
8BB	.	8r	8r
8E	.	8b	8gg
=70	=70	=70	=70
8C	1r	8cc	8aa
8A	.	8f#	8dd#
8G	.	8g	[4ee
8A	.	8e	.
4F#	.	4a	8ee]
.	.	.	8ff#
4B	.	8r	4dd#
.	.	8f#	.
=71	=71	=71	=71
4E	1r	8g	4ee
.	.	8b	.
8r	.	8e	8r
8e	.	8g	8bb
8c	.	4a	8ccc
8e	.	.	8cc
8A	.	8r	8ee
8c	.	8e	[8aa
=72	=72	=72	=72
4d	1r	8f#	8aa]
.	.	8a	8dd
8r	.	8d	8ff#
8d	.	8f#	8aa
8B	.	4g	8bb
8d	.	.	8b
8G	.	8r	8dd
8B	.	8d	[8gg
=73	=73	=73	=73
4c	1r	8e	8gg]
.	.	8g	8cc
8r	.	8c	8ee
8c	.	8e	8gg
8A	.	4f#	8aa
8c	.	.	8a
8F#	.	8r	8cc
8A	.	8c	[8ff#
=74	=74	=74	=74
4B	1r	8d	8ff#]
.	.	8f#	8b
8r	.	8B	8dd
8B	.	8d	8ff#
8G	.	4e	8gg
8B	.	.	8g
8E	.	8r	8b
8G	.	8B	[8ee
=75	=75	=75	=75
4A	1r	8c#	8ee]
.	.	8e	8a
8r	.	8A	8cc#
8A	.	8c#	8ee
8F#	.	4d	4ff#
8A	.	.	.
8D	.	4r	8r
8F#	.	.	8ff#
=76	=76	=76	=76
8G	1r	8r	4b
8B	.	8g	.
8E	.	4c#	8r
8G	.	.	8ee
4C#	.	8r	8a#
.	.	4e	8cc#
4D	.	.	8f#
.	.	8d	[8b
=77	=77	=77	=77
4E	1r	4.c#	8b]
.	.	.	8cc#
4F#	.	.	4a#
.	.	8f#	.
4BB	.	4d	8b
.	.	.	8ff#
4r	.	4r	8dd
.	.	.	8ff#
=78	=78	=78	=78
4E	1r	8r	4gg
.	.	8e	.
4r	.	8B	4r
.	.	8e	.
4AA	.	4c#	8r
.	.	.	8ee
4r	.	4r	8cc#
.	.	.	8ee
=79	=79	=79	=79
4D	1r	8r	4ff#
.	.	8d	.
4r	.	8A	4r
.	.	8d	.
4GG	.	4B	8r
.	.	.	8dd
4r	.	4r	8b
.	.	.	8dd
=80	=80	=80	=80
4C#	1r	8r	4ee
.	.	8c#	.
4r	.	8G#	4r
.	.	8B	.
4FF#	.	4A#	8r
.	.	.	8cc#
4r	.	4r	8a#
.	.	.	8cc#
=81	=81	=81	=81
4FF#	1r	8r	4dd
.	.	8B	.
4r	.	8F#	4r
.	.	8B	.
4FF#	.	4c#	8r
.	.	.	8a#
4r	.	8r	8f#
.	.	8c#	8a#
=82	=82	=82	=82
4BB	1r	8d	8b
.	.	8f#	8dd
4r	.	8d	8b
.	.	8f#	8dd
4EE	.	8g	8ee
.	.	8f#	8dd
4r	.	8e	8cc#
.	.	8d	8b
=83	=83	=83	=83
4FF#	4r	4c#	8a#
.	.	.	8ff#
4r	4F#	4r	8cc#
.	.	.	8ff#
2r	4F#	2r	8a#
.	.	.	8cc#
.	4F#	.	8f#
.	.	.	8a#
=84	=84	=84	=84
1r	8D	4r	4b
.	8F#	.	.
.	8BB	4f#	4dd
.	8F#	.	.
.	8D	4f#	4b
.	8F#	.	.
.	8BB	4f#	4dd
.	8D	.	.
=85	=85	=85	=85
1r	4GG	8e	4ee
.	.	8b	.
.	4G	8g	4r
.	.	8b	.
.	4G	8e	2r
.	.	8g	.
.	4G	8B	.
.	.	8e	.
=86	=86	=86	=86
1r	8E	4c#	4r
.	8G	.	.
.	8C#	4e	4cc#
.	8G	.	.
.	8E	4g	4a#
.	8G	.	.
.	8C#	4e	4cc#
.	8E	.	.
=87	=87	=87	=87
1r	8AA#	4f#	4ee
.	8C#	.	.
.	8FF#	8r	8r
.	8BB	8f#	8dd
.	8AA#	4f#	4ee
.	8C#	.	.
.	8FF#	8r	8r
.	8BB	8f#	8dd
=88	=88	=88	=88
1r	8GG	4g	8ee
.	8E	.	8a#
.	8D	8f#	[4b
.	8E	8g	.
.	2C#T	4.e	8b]
.	.	.	8cc#
.	.	.	4a#
.	.	8f#	.
=89	=89	=89	=89
1r	4BB	4d	8b
.	.	.	8ff#
.	4AA#	4r	8cc#
.	.	.	8ff#
.	4BB	8r	4dd
.	.	8b	.
.	4E	8f#	4r
.	.	8b	.
=90	=90	=90	=90
1r	4F#	4a#	8r
.	.	.	8ff#
.	4FF#	4r	8cc#
.	.	.	8ee
.	4BB	8r	4dd
.	.	8b	.
.	4D	8f#	4r
.	.	8a	.
=91	=91	=91	=91
1r	4E	4g	8r
.	.	.	8ee
.	4GG	4r	8b
.	.	.	8dd
.	4AA	8r	4cc#
.	.	8a	.
.	4C#	8e	4r
.	.	8g	.
=92	=92	=92	=92
1r	4D	4f#	8r
.	.	.	8dd
.	4FF#	4r	8a
.	.	.	8cc
.	8GG	2r	8b
.	8B	.	8g
.	8F#	.	[4dd
.	8A	.	.
=93	=93	=93	=93
1r	4G	8r	4dd]
.	.	8b	.
.	4A	8e	4cc#
.	.	8g	.
.	8D	8f#	4dd
.	8A	8f#	.
.	8E	8c#	4r
.	8G	8e	.
=94	=94	=94	=94
1r	4F#	8d	4r
.	.	8dd	.
.	8r	8a	4aa
.	8D	8dd	.
.	4A	8cc#	4aa
.	.	8ee	.
.	4AA	8a	4aa
.	.	8cc#	.
=95	=95	=95	=95
1r	4D	4dd	8ff#
.	.	.	8aa
.	4f#	4a	8dd
.	.	.	8aa
.	4d	4a	8ff#
.	.	.	8aa
.	4f#	4a	8dd
.	.	.	8ff#
=96	=96	=96	=96
1r	8g	4b	4b
.	8b	.	.
.	8d	4r	4bb
.	8g	.	.
.	8B	2r	4bb
.	8d	.	.
.	8G	.	4bb
.	8B	.	.
=97	=97	=97	=97
1r	4E	4r	8gg
.	.	.	8bb
.	4G	4b	8ee
.	.	.	8bb
.	4E	4b	8gg
.	.	.	8bb
.	4G	4b	8ee
.	.	.	8gg
=98	=98	=98	=98
1r	4A	8e	8cc#
.	.	8g	8ee
.	8r	4f#	8a
.	8D	.	8dd
.	4A	8e	8cc#
.	.	8g	8ee
.	8r	4f#	8a
.	8D	.	8dd
=99	=99	=99	=99
1r	8G	8g	8b
.	8C#	8ee	8gg
.	8D	2dd	8ff#
.	8G	.	8gg
.	8A	.	2ee
.	8a	.	.
.	8g	4cc#	.
.	8a	.	.
=100	=100	=100	=100
1r	8f#	4dd	4dd
.	8a	.	.
.	8d	4r	4ff#
.	8a	.	.
.	8f#	2r	4ff#
.	8a	.	.
.	8d	.	4ff#
.	8f#	.	.
=101	=101	=101	=101
1r	4B	1r	8dd
.	.	.	8ff#
.	4d	.	8b
.	.	.	8ff#
.	4B	.	8dd
.	.	.	8ff#
.	4d	.	8b
.	.	.	8ff#
=102	=102	=102	=102
1r	8d	1r	4gg#
.	8f	.	.
.	8B	.	4gg#
.	8f	.	.
.	8d	.	4gg#
.	8f	.	.
.	8B	.	4gg#
.	8d	.	.
=103	=103	=103	=103
1r	8c	1r	8aa
.	8A	.	8ccc
.	8c	.	8ee
.	8e	.	8aa
.	4a	.	8cc
.	.	.	8ee
.	4c	.	8a
.	.	.	8ee
=104	=104	=104	=104
1r	4d	4r	8ff
.	.	.	8g#
.	8c	4e	8a
.	8d	.	8b
.	8e	4e	4.g#
.	8E	.	.
.	8EE	4e	.
.	8E	.	8g#
=105	=105	=105	=105
1r	4AA	8c	4a
.	.	8e	.
.	4C	8A	4a
.	.	8e	.
.	4AA	8c	4a
.	.	8e	.
.	4C	8A	4a
.	.	8c	.
=106	=106	=106	=106
1r	4D	4f	8a
.	.	.	8aa
.	4d	4ff	8ff
.	.	.	8aa
.	4d	4ff	8dd
.	.	.	8ff
.	4d	4ff	8a
.	.	.	8dd
=107	=107	=107	=107
1r	4B	8d	8g#
.	.	8f	8dd
.	4r	8B	8ff
.	.	8f	8dd
.	4r	8d	8b
.	.	8f	8dd
.	4D	8B	8ff
.	.	8d	8dd
=108	=108	=108	=108
1r	4E	8G#	4b
.	.	8B	.
.	8r	8E	8r
.	8E	8A	8cc
.	4E	8G#	4b
.	.	8B	.
.	8r	8E	8r
.	8E	8A	8cc
=109	=109	=109	=109
1r	8D	8F	8dd
.	8E	8d	8g#
.	4F	8c	[4a
.	.	8d	.
.	4D	4.B	8a]
.	.	.	8b
.	4E	.	4g#
.	.	8d	.
=110	=110	=110	=110
1r	4AA	8c	8a
.	.	8e	8cc
.	4r	8c	8a
.	.	8e	8cc
.	8r	4f	4dd
.	8F	.	.
.	8D	4r	4r
.	8F	.	.
=111	=111	=111	=111
1r	4G	8r	8r
.	.	8d	8b
.	4r	8B	8g
.	.	8d	8b
.	8r	4e	4cc
.	8E	.	.
.	8C	8r	8r
.	8E	8e	8cc
=112	=112	=112	=112
1r	8F	4c	4a
.	8FF	.	.
.	8DD	8r	8r
.	8FF	8f	8dd
.	8GG	4d	4b
.	8G	.	.
.	8E	8r	8r
.	8G	8g	8ee
=113	=113	=113	=113
1r	4A	8e	8cc
.	.	8a	8a
.	8r	8f	[4ff
.	8d	8d	.
.	8B	4g	8ff]
.	8G	.	8b
.	8E	8r	8cc
.	8C	[8g	8ee
=114	=114	=114	=114
1r	8F	8g]	8a
.	8A	[4.f	8a
.	8F	.	8dd
.	8D	.	8ff
.	4G	4f]	8b
.	.	.	8dd
.	8r	8r	8g
.	8G	8f	8b
=115	=115	=115	=115
4r	4G	8e	8cc
.	.	8g	8ee
4G	4r	8c	8g
.	.	8e	8cc
4G	4r	8d	8b
.	.	8f	8dd
4G	4G	8B	8g
.	.	8d	8b
=116	=116	=116	=116
8E	4G	4e	4cc
8G	.	.	.
8C	4e	4r	4gg
8G	.	.	.
8E	4c	4r	4gg
8G	.	.	.
8C	4e	4g	4gg
8E	.	.	.
=117	=117	=117	=117
4AA	4e	4cc	8aa
.	.	.	8ccc
4A	4a	4cc	8ee
.	.	.	8aa
4A	4e	4a	8cc
.	.	.	8ee
4A	4c	4e	8a
.	.	.	8cc
=118	=118	=118	=118
8F	4A	4d	4dd
8A	.	.	.
8D	4d	4a	4ff
8A	.	.	.
8F	4d	4a	4dd
8A	.	.	.
8D	4a	4dd	4ff
8F	.	.	.
=119	=119	=119	=119
8BB	4g	4dd	4gg
8D	.	.	.
8GG	8r	8r	8r
8C	8g	8cc	8ee
8BB	4g	4dd	4gg
8D	.	.	.
8GG	8r	8r	8r
8C	8g	8cc	8ee
=120	=120	=120	=120
8AA	4f	4cc	4aa
8F	.	.	.
8E	4g	4cc	8gg
8F	.	.	8aa
4D	4a	4cc	8ff
.	.	.	8aa
8r	4g	4b	8dd
8G	.	.	8ff
=121	=121	=121	=121
4C	8g	4cc	4ee
.	8a	.	.
8r	8e	8r	8r
8C	8g	8cc	8ee
4F	8f	4a	8dd
.	8a	.	8ff
8r	8d	8r	8b
8G	8f	8g	8dd
=122	=122	=122	=122
4C	8e	4g	4cc
.	8g	.	.
8r	4c	8r	8r
8A	.	8e	8cc
4D	2r	8f	8dd
.	.	8a	8ff
8r	.	8d	8b
8G	.	8f	8dd
=123	=123	=123	=123
4C	1r	4e	8cc
.	.	.	8ee
8r	.	8r	8a
8F	.	8e	8cc
4BB	.	8d	8b
.	.	8f	8dd
8r	.	8B	8g#
8E	.	8d	8b
=124	=124	=124	=124
4AA	1r	8c	4a
.	.	8e	.
8r	.	8A	8r
8A	.	8e	8cc
4F#	.	8d	4cc
.	.	8f#	.
8r	.	8B	8r
8G	.	8d	8b
=125	=125	=125	=125
4E	1r	8c	4b
.	.	8e	.
8r	.	8A	8r
8F#	.	8c	[8a
4G	.	4B	8a]
.	.	.	8d
8r	.	8r	8g
8C	.	8c	8a
=126	=126	=126	=126
4D	1r	4A	8f#
.	.	.	8dd
8r	.	8r	8b
8GG	.	8B	8g
4D	.	8A	4f#
.	.	8d	.
8r	.	8B	8r
8G	.	8G	8b
=127	=127	=127	=127
8D	1r	4F#	4a
8d	.	.	.
4B	.	8r	8r
.	.	8dd	8gg
8r	.	4cc	8ee
8c	.	.	8gg
4A	.	8r	8cc
.	.	8f#	8ee
=128	=128	=128	=128
8r	1r	4b	8dd
8B	.	.	8ff#
4G	.	8r	8b
.	.	8e	8dd
8r	.	4a	8cc
8A	.	.	8ee
4F#	.	8r	8a
.	.	8d	8cc
=129	=129	=129	=129
8r	1r	8g	8b
8G	.	8B	8dd
4E	.	8e	8g
.	.	[8g	8b
4C	.	8g]	4a
.	.	8g	.
4D	.	4f#	8r
.	.	.	8b
=130	=130	=130	=130
4E	1r	8r	4cc
.	.	8g	.
4BB	.	4dd	8r
.	.	.	8dd
4C	.	8r	4ee
.	.	8g	.
4AA	.	[4cc	8r
.	.	.	8aa
=131	=131	=131	=131
4D	4r	8cc]	4ff#
.	.	8cc	.
4GG	4d	4b	8r
.	.	.	[8gg
4D	4d	4a	8gg]
.	.	.	8gg
4DD	4d	8r	4ff#
.	.	8a	.
=132	=132	=132	=132
4GG	8B	4g	4gg
.	8d	.	.
4BB	8G	4g	4dd
.	8d	.	.
4GG	8B	4g	4dd
.	8d	.	.
4BB	8G	4g	4dd
.	8B	.	.
=133	=133	=133	=133
8C	4E	4g	4cc
8c	.	.	.
8G	4e	4g	4cc
8c	.	.	.
8E	4e	4g	4cc
8G	.	.	.
8C	4e	4g	4cc
8E	.	.	.
=134	=134	=134	=134
4AA	8c	4a	4cc
.	8e	.	.
4C	8A	4a	4cc
.	8e	.	.
4AA	8c	4a	4ee
.	8e	.	.
4C	8A	4e	4cc
.	8c	.	.
=135	=135	=135	=135
4D	8F#	4d	4a
.	8A	.	.
8r	8D	8r	8r
8GG	8G	8d	8b
4D	8F#	4d	4a
.	8A	.	.
8r	8D	8r	8r
8GG	8G	8d	8b
=136	=136	=136	=136
8C	8E	4e	8g
8FF#	8c	.	8a
4GG	8B	4d 4dd	4g
.	8c	.	.
4D	8A	4d 4dd	4.g
.	8G	.	.
4DD	4A	4d 4dd	.
.	.	.	8f#
=137	=137	=137	=137
4GG	4G	4d 4g	8b
.	.	.	8dd
4GG	4B	4d 4g	8g
.	.	.	8dd
4GG	4G	4d	8b
.	.	.	8dd
4GG	4B	4d	8g
.	.	.	8b
=138	=138	=138	=138
8C	4G	4c	4e
8CC	.	.	.
8C	8c	4g	4ee
8GG	8B	.	.
8C	4c	4g	4ee
8CC	.	.	.
8C	8c	4g	4ee
8GG	8B	.	.
=139	=139	=139	=139
4AA	4c	4e	8cc
.	.	.	8ee
4AA	4c	4e	8a
.	.	.	8ee
4AA	4A	4e	8cc
.	.	.	8ee
4AA	4c	4e	8a
.	.	.	8cc
=140	=140	=140	=140
8D	4A	4d	8f#
8DD	.	.	8a
8BB	8r	8r	8d
8GG	8B	8d	8g
8D	4A	4d	8f#
8DD	.	.	8a
8BB	8r	8r	8d
8GG	8B	8d	8g
=141	=141	=141	=141
8C	8G	8c	8e
8AA	8c	8e	8a
8D	8A	8d	8f#
8BB	8d	8f#	8b
8E	8B	8e	8g
8C	8e	8g	8cc
8F#	8c	8f#	8a
8D	8f#	8a	8dd
=142	=142	=142	=142
8G	8d	8g	8b
8E	8g	8b	8ee
8A	8e	8a	8cc
8F#	8a	8cc	8ff#
8B	8f#	8b	8dd
8G	8b	8dd	8gg
8c	8g	8cc	8ee
8A	8cc	8ee	8aa
=143	=143	=143	=143
4d	8a	4dd	8ff#
.	8f#	.	8aa
4d	8b	4r	8dd
.	8g	.	8gg
4d	8a	4dd	8ff#
.	8f#	.	8aa
4d	8b	4r	8dd
.	8g	.	8gg
=144	=144	=144	=144
8d	4a	4dd	8ff#
8A	.	.	8aa
8B	8r	8r	8dd
8G	8b	8dd	8gg
8c	4g	4cc	8ee
8G	.	.	8gg
8A	8r	8r	8cc
8F#	8a	8cc	8ff#
=145	=145	=145	=145
8B	4f#	4b	8dd
8F#	.	.	8ff#
8G	8r	8r	8b
8E	8g	8b	8ee
8A	4e	4a	8cc
8E	.	.	8ee
8F#	8r	8r	8a
8D	8f#	8a	8dd
=146	=146	=146	=146
8G	4d	4g	8b
8D	.	.	8dd
8E	8r	8r	8g
8BB	8d	8g	8b
8C	4c	4e	8a
8AA	.	.	8cc
8C	8r	8r	8e
8AA	8c	8e	8a
=147	=147	=147	=147
4D	4A	4d	8f#
.	.	.	8a
8r	8r	8r	8d
8DD	8B	8d	8g
4D	4A	4d	8f#
.	.	.	8a
8r	8r	8r	8d
8DD	8B	8d	8g
=148	=148	=148	=148
4D	8A	8d	8f#
.	8D	8f# 8a	8dd
8r	8G	8d 8g	8b
8GG	8B	8g 8d	8gg
4D	2d	2a 2dd	4gg
4DD	.	.	4ff#
=149	=149	=149	=149
4GG	4d	4g 4b 4d	4gg
4r	4r	4r	4r
2r	2r	2r	2r
==	==	==	==
*-	*-	*-	*-
